!!!SOCIAL_FUNCTION:	songs of the drum-presentation ceremony
!!!PDT:	1913
!!!OTL: No_77_Sixth_Song_of_the_Dog_Feast.krn
!!!REG: Great_Lakes
!!!LANG: Non-Tone
!!!LING_GROUP: Algonquin
**kern	**kern
*staff2	*staff1
=1-	=1-
*clefF4	*clefF4
*k[b-e-a-d-g-]	*k[b-e-a-d-g-]
*M2/4	*M2/4
8GG-/L	4e-\
8GG-/J	.
8GG-/L	[4e-\
8GG-/J	.
=2	=2
8GG-/L	4e-\]
8GG-/J	.
8GG-/L	4d-\
8GG-/J	.
=3||	=3||
*M3/4	*M3/4
2.r	4.d-\
.	8B-\
.	4A-\
=4||	=4||
*M2/4	*M2/4
2r	16B-\LK
.	8.A-\J
.	8E-\L
.	16.A-\L
.	32A-\JJk
=5	=5
2r	2A-\
=6	=6
2r	4B-\
.	8B-\L
.	8d-\J
=7	=7
2r	8d-\L
.	8B-\J
.	4A-\
=8	=8
2r	16B-\LK
.	8.A-\J
.	16F\LK
.	8.E-\J
=9	=9
2r	16G-\LK
.	8.G-\J
.	16E-\LK
.	8.D-\J
=10	=10
2r	8D-/L
.	8BB-/J
.	4AA-/
=11	=11
2r	8E-\L
.	8E-\J
.	16E-\LK
.	8.D-\J
=12	=12
2r	8D-/L
.	8BB-/J
.	8.AA-/L
.	16AA-/Jk
=13	=13
2r	4.AA-/
.	8AA-/
=14	=14
2r	2AA-/
=15	=15
2r	4A-\
.	8E-\L
.	16.A-\L
.	32A-\JJk
=16	=16
2r	2A-\
=17	=17
2r	4B-\
.	8B-\L
.	8d-\J
=18	=18
2r	8d-\L
.	8B-\J
.	4A-\
=19	=19
2r	16B-\LK
.	8.A-\J
.	16F\LK
.	8.E-\J
=20	=20
2r	16G-\LK
.	8.G-\J
.	16E-\LK
.	8.D-\J
=21	=21
2r	8D-/L
.	8BB-/J
.	4AA-/
=22	=22
2r	8E-\L
.	8E-\J
.	16E-\LK
.	8.D-\J
=23	=23
2r	8D-/L
.	8BB-/J
.	8.AA-/L
.	16AA-/Jk
=24	=24
2r	4.AA-/
.	8AA-/
=25	=25
2r	2AA-/
==	==
*-	*-
